!!!OTL-incipit: E BISSELE LIEB E BISSELE TREU
!!!ARE: Europa, Mitteleuropa, Deutschland, bayrisches Gebirge
!!!SCT: Z0255
!!!YEM: Copyright 1995, estate of Helmut Schaffrath.
**kern	**text
*ICvox	*
*M3/8	*
*k[f#c#g#]	*
*A:	*
!LO:TX:a:t=Erste Melodie.	!
!LO:TX:a:t=Süddeutſchland. Baierſch Gebirge.	!
{8a	E
=1	=1
8cc#	bi-
8.cc#	-ße-
16dd	-le
=2	=2
16ff#qq	.
4ee	Lieb,
16r	.
16ee	e
=3	=3
8ee	bi-
8.dd	-ße-
16dd	-le
=4	=4
16ddqq	.
4cc#	Treu,
16r}	.
{16cc#	e
=5	=5
8cc#	bi-
8.b	-ße-
16b	-le
=6	=6
8b/	Falſchheit
8.a	.
16a	is
=7	=7
16b	al-
16dd	-le-
8.g#	-weg
16g#	da-
=8	=8
4a}	-bei.
==	==
!!!AGN: lyrisches Lied, Romanze
!!!ONB: ESAC (Essen Associative Code) Database: ZUCCAL
!!!AMT: simple triple
!!!AIN: vox
!!!EED: Helmut Schaffrath
!!!EEV: 1.0
!!!GTL: IV. Lyrische Lieder.
!!!URL-scan: https://www.digitale-sammlungen.de/de/view/bsb11160571?page=471
!!!ENC: Anna Maria Matuszewska
!!!EEV: 2025/01/30
*-	*-
